X:1
T:Alma mia, dove
T:André Vierendeels
T:Source : Melody in Tenor voice from "Corona di Sacre canzoni o Laude spirituali" Firenze---Eredi Francesco Orofri---1689. Editor : André Vierendeels (08/12/17). Notes : Original clef : C4, other voices supplied editorially Original note values have been quartered Music compiled by Matteo Coferati
T:Alma mia, dove 
T:©
T:©
C:André Vierendeels
Z:©
%%score [ 1 2 3 ]
L:1/8
Q:1/4=120
M:3/4
K:F
V:1 treble nm="Soprano" snm="S"
V:2 treble nm="Alto" snm="A"
V:3 treble-8 nm="Tenor" snm="T"
V:1
"^1)" B4 A2 | A4 A2 | B2 G2 B2 | A4 A2 | F4 A2 | c4 d2 | c2 d2 B2 | A6 :: A4 c2 | d4 A2 | B4 d2 | %11
w: Al- ma|mi- a,|do- ve ten|va- i,|al- ma|mi- a,|chi fug- gi|tu?|Son pur|qui gli'ar-|den- ti|
w: Son io|pur quel,|che ti di-|e- di,|Chia- ro'l|Sol, se-|re- * no'l|di:|al- ma|mia gra-|zi'a te|
 c4 A2 | G4 A2 | G2 A2 B2 | B2 A4 | =B6 :| %16
w: ra- i,|del tuo|dol- ce, e|buon Gie-|su.|
w: s'u- ni,|Che mia|gra- zi'a te|s'u- *|ni.|
V:2
"^2)""^1)" D4 C2 | D4 D2 | D2 _E2 D2 | F4 E2 | D4 F2 | E4 F2 | F2 B2 G2 | D6 :: D4 A2 | A4 D2 | %10
w: Al- ma|mi- a,|do- ve ten|va- i,|al- ma|mi- a,|chi fug- gi|tu?|Son pur|qui gli'ar-|
w: Que- sto|san- gue|d'o- * gni|pia- ga,|on- de'l|cor- po'as-|per- * s'o-|rè,|quant' in-|on- da'e|
 D4 B2 | A4 C2 | C4 F2 | C2 D2 D2 | D4 D2 | D6 :| %16
w: den- ti|ra- i,|del tuo|dol- ce, e|buon Gie-|su.|
w: quent' al-|la- ga,|al- ma|mi- a ver-|sa per|te.|
V:3
"^3)""^1)""^4)" G4 A2 | ^F4 F2 | G2 G2 G2 | A4 A2 | A4 A2 | A4 A2 | A2 G2 G2 | ^F6 :: ^F4 F2 | %9
w: Al- ma|mi- a,|do- ve ten|va- i,|al- ma|mi- a,|chi fug- gi|tu?|Son pur|
w: La mia|Cro- ce|pre- zi- o-|* ,|tri- on-|far nel|Ciel _ ti|fa;|Que- sta|
 ^F4 F2 | G4 G2 | F4 F2 | E4 D2 | E2 ^F2 G2 | G4 ^F2 | G6 :| %16
w: qui gli'ar-|den- ti|ra- i,|del tuo|dol- ce, e|buon Gie-|su.|
w: mor- te|mia te-|no- sa,|vi- ta'e-|ter- * na'o-|mai ti|da.|

